16x16/apps/io.photoflare.photoflare.svg

<svg xmlns="http://www.w3.org/2000/svg" width="16" height="16" version="1">
 <rect style="fill:#4f4f4f" width="16" height="16" x="0" y="0" rx="4.8" ry="4.8"/>
 <path style="fill:#f4f4f7" d="M 11.701172 1.4003906 L 11.277344 2.1757812 L 10.5 2.5996094 L 11.277344 3.0234375 L 11.701172 3.7988281 L 12.125 3.0234375 L 12.900391 2.5996094 L 12.125 2.1757812 L 11.701172 1.4003906 z M 8 2 C 4.691618 2 2 4.6915428 2 8 C 2 11.308382 4.691618 14 8 14 C 11.308382 14 14 11.308382 14 8 L 13.486328 8 C 13.486328 11.025122 11.025196 13.486328 8 13.486328 C 4.9748028 13.486328 2.5136719 11.025196 2.5136719 8 C 2.5136719 4.9747275 4.9748028 2.5136719 8 2.5136719 L 8 2 z M 9.7011719 2.1992188 L 9.5585938 2.4589844 L 9.3007812 2.5996094 L 9.5585938 2.7402344 L 9.7011719 3 L 9.8417969 2.7402344 L 10.101562 2.5996094 L 9.8417969 2.4589844 L 9.7011719 2.1992188 z M 12.900391 3.7988281 L 12.617188 4.3164062 L 12.101562 4.5996094 L 12.617188 4.8828125 L 12.900391 5.4003906 L 13.183594 4.8828125 L 13.701172 4.5996094 L 13.183594 4.3164062 L 12.900391 3.7988281 z M 13.5 5.7988281 L 13.289062 6.1875 L 12.900391 6.4003906 L 13.289062 6.6113281 L 13.5 7 L 13.712891 6.6113281 L 14.101562 6.4003906 L 13.712891 6.1875 L 13.5 5.7988281 z"/>
 <path style="fill:#0092ee" d="m 7.974276,7.9727828 c 0,0 -0.5694692,-0.1049088 -1.0715188,-0.179826 C 6.4007684,7.7180396 5.8519028,7.8472704 5.7113948,8.010272 5.5708868,8.1732124 5.8968288,8.4823304 5.9699172,8.6059532 6.0429452,8.7295756 6.0036252,8.7464 5.8743964,8.8644148 5.7664396,8.9629836 5.328274,9.0171144 5.1866076,9.0322928 v 0.00451 c 0,0 -0.00823,-8e-4 -0.022372,-0.0022 -0.014144,0.0014 -0.022312,0.0022 -0.022312,0.0022 v -0.00451 C 5.0002576,9.0171128 4.5620916,8.9629836 4.4541352,8.8644148 4.3249044,8.7464 4.2855256,8.7295756 4.358614,8.6059532 4.4316416,8.4823304 4.757584,8.1732124 4.6171368,8.010272 c -0.08589,-0.099606 -0.32454,-0.1863484 -0.61153,-0.221826 -0.00364,0.07004 -0.00561,0.1405688 -0.00561,0.211524 0,2.209177 1.7908228,4.000061 4,4.000061 0.028956,0 0.057544,-0.0016 0.086377,-0.0022 0.1185024,-0.442981 0.2730308,-1.202639 0.00136,-1.390695 -0.3896432,-0.269738 -0.8317104,0.02249 -0.8317104,0.02249 0,0 -0.314726,0.172328 -0.4720584,-0.0075 C 6.626574,10.442306 6.5966436,10.157572 6.611578,9.9628108 6.626574,9.7679892 6.7914652,9.2359484 7.0911344,9.3707872 7.3908648,9.5057484 7.988984,9.6095596 8.1176664,9.4457656 8.447388,9.0261312 7.9742932,7.9727776 7.9742932,7.9727776"/>
 <path style="fill:#bee34a" d="m 7.974276,7.9727828 c 0,0 2.099087,-0.6250628 2.21887,-0.025664 0.119965,0.5994604 -0.6293304,0.6294516 -0.179765,0.929182 0.356482,0.2375532 0.655663,0.230238 0.764595,0.2170712 v -0.00732 c 0,0 0.0082,0.00196 0.02225,0.00421 0.01414,-0.00224 0.02237,-0.00421 0.02237,-0.00421 v 0.00732 C 10.931528,9.1066 11.23071,9.113916 11.587192,8.8763008 12.036757,8.5765704 11.287462,8.5465792 11.407366,7.9471188 11.445954,7.7543696 11.682957,7.6880472 11.98665,7.6865844 11.826574,5.624072 10.103475,3.9999692 7.9999992,3.9999692 c -0.064128,0 -0.127768,0.00184 -0.1911644,0.00482 -0.088633,0.3453876 -0.162392,0.8356116 0.038036,1.0907208 0.1287432,0.1638548 0.7268628,0.059922 1.026532,-0.074978 0.2997304,-0.1348392 0.4645604,0.3971412 0.479556,0.5919628 0.014936,0.1948216 -0.014996,0.479556 -0.172328,0.659382 -0.1573324,0.179826 -0.4720584,0.0075 -0.4720584,0.0075 0,0 -0.4420672,-0.2922324 -0.8317104,-0.022492 -0.3896432,0.2697388 0.097411,1.7159056 0.097411,1.7159056"/>
 <path style="fill:#f15976" d="M 4.3586156,8.605892 C 4.285588,8.7295148 4.3249076,8.7464 4.4541368,8.8644148 4.5620932,8.9629228 5.0002592,9.0170536 5.1419256,9.032232 v 0.00451 c 0,0 0.00823,-8e-4 0.022372,-0.0022 0.01408,0.0014 0.022312,0.0022 0.022312,0.0022 V 9.032232 C 5.3282756,9.017052 5.7664416,8.9629228 5.874398,8.8644148 6.0036288,8.7464 6.0430076,8.7295148 5.9699192,8.605892 5.8968916,8.4822692 5.5709492,8.1731516 5.7113964,8.0102108 5.8519044,7.8472092 6.40077,7.7179784 6.90282,7.792896 c 0.5019888,0.074917 1.071458,0.1798256 1.071458,0.1798256 0,0 -0.487054,-1.4461056 -0.097411,-1.7159052 0.3897044,-0.2697392 0.8317712,0.022492 0.8317712,0.022492 0,0 0.314726,0.1723284 0.4720584,-0.0075 C 9.33809,6.0919864 9.3679596,5.8072516 9.3530252,5.61243 9.3380892,5.417608 9.1731988,4.885628 8.8735296,5.020528 8.5737992,5.1553672 7.9756796,5.2592392 7.8469976,5.0954452 7.6465676,4.8403364 7.7203268,4.3501732 7.8088976,4.0047856 5.7587596,4.101282 4.1124068,5.740868 4.0056696,7.7883848 4.2926596,7.8238608 4.53131,7.9106056 4.6171996,8.0102108 4.7576468,8.1731516 4.4316436,8.4823304 4.358616,8.605892"/>
 <path style="fill:#10e7c4" d="M 12,7.99997 C 12,7.8943908 11.9946,7.7900916 11.98659,7.6865852 11.682959,7.6880652 11.445954,7.7543702 11.407368,7.9471196 11.287525,8.54658 12.03682,8.5765104 11.587194,8.8762404 11.230712,9.1139156 10.93153,9.1065396 10.822598,9.0933728 v -0.00726 c 0,0 -0.0083,0.00184 -0.02231,0.00414 -0.01408,-0.00232 -0.02231,-0.00414 -0.02231,-0.00414 v 0.00726 C 10.66904,9.1066008 10.369859,9.1139768 10.013377,8.8762404 9.5638116,8.5765104 10.313107,8.54658 10.193203,7.9471196 10.073298,7.34772 7.974272,7.9727836 7.974272,7.9727836 c 0,0 0.4730948,1.0533536 0.1433732,1.4729272 -0.1286824,0.1638548 -0.7268016,0.059982 -1.026532,-0.074918 -0.2997304,-0.1349 -0.4645608,0.3971412 -0.4795564,0.5919628 -0.014996,0.1948224 0.014996,0.4795564 0.172328,0.6593214 0.1573936,0.179826 0.4720588,0.0075 0.4720588,0.0075 0,0 0.442128,-0.292232 0.8317104,-0.02243 0.2716896,0.188117 0.117222,0.947714 -0.00128,1.390634 2.169128,-0.04608 3.913623,-1.817644 3.913623,-3.9978058"/>
</svg>

<svg xmlns="http://www.w3.org/2000/svg" width="16" height="16" version="1"><rect style="fill:#4f4f4f" width="16" height="16" rx="4.8" ry="4.8"/><path style="fill:#f4f4f7" d="m11.701 1.4-.424.776-.777.424.777.423.424.776.424-.776.775-.423-.775-.424-.424-.776zM8 2C4.692 2 2 4.692 2 8s2.692 6 6 6 6-2.692 6-6h-.514A5.493 5.493 0 0 1 8 13.486 5.493 5.493 0 0 1 2.514 8 5.492 5.492 0 0 1 8 2.514V2zm1.701.2-.142.259-.258.14.258.141L9.7 3l.14-.26.26-.14-.26-.141-.14-.26zm3.2 1.599-.284.517-.515.284.515.283.283.517.284-.517.517-.283-.517-.284L12.9 3.8zm.599 2-.21.388-.39.213.39.211.21.389.213-.389.389-.21-.39-.213-.212-.39z"/><path style="fill:#0092ee" d="M7.974 7.973s-.57-.105-1.071-.18c-.502-.075-1.051.054-1.192.217-.14.163.186.472.259.596.073.124.034.14-.096.258-.108.099-.546.153-.687.168v.005l-.023-.002-.022.002v-.005c-.142-.015-.58-.069-.688-.168-.13-.118-.168-.134-.095-.258.073-.124.399-.433.258-.596-.086-.1-.324-.186-.611-.222A4 4 0 0 0 8 12l.086-.002c.119-.443.273-1.203.002-1.39-.39-.27-.832.022-.832.022s-.315.172-.472-.008c-.157-.18-.187-.464-.172-.66.015-.194.18-.726.48-.591.299.135.897.239 1.026.075.33-.42-.144-1.473-.144-1.473"/><path style="fill:#bee34a" d="M7.974 7.973s2.1-.625 2.22-.026c.12.6-.63.63-.18.93.356.237.655.23.764.216v-.007l.022.004.023-.004v.007c.109.014.408.02.764-.217.45-.3-.3-.33-.18-.929.039-.193.276-.259.58-.26a4 4 0 0 0-4.178-3.682c-.089.345-.163.835.038 1.09.129.164.727.06 1.026-.074.3-.135.465.397.48.591.015.195-.015.48-.172.66-.158.18-.472.007-.472.007s-.442-.292-.832-.022c-.39.27.097 1.716.097 1.716"/><path style="fill:#f15976" d="M4.359 8.606c-.073.124-.034.14.095.258.108.099.546.153.688.168v.005l.022-.002c.014 0 .023.002.023.002v-.005c.141-.015.58-.07.687-.168.13-.118.169-.134.096-.258-.073-.124-.4-.433-.259-.596.14-.163.69-.292 1.192-.217.502.075 1.071.18 1.071.18s-.487-1.446-.097-1.716.832.022.832.022.314.173.472-.007c.157-.18.187-.465.172-.66-.015-.194-.18-.726-.48-.591-.3.134-.897.238-1.026.074-.2-.255-.127-.745-.038-1.09a4 4 0 0 0-3.803 3.783c.287.036.525.123.611.222.14.163-.185.472-.258.596"/><path style="fill:#10e7c4" d="M12 8c0-.106-.005-.21-.013-.313-.304.001-.541.067-.58.26-.12.6.63.63.18.93-.356.237-.655.23-.764.216v-.007l-.023.004-.022-.004v.007c-.109.014-.408.021-.765-.217-.45-.3.3-.33.18-.929-.12-.6-2.219.026-2.219.026s.473 1.053.144 1.473c-.129.164-.727.06-1.027-.075-.3-.135-.464.397-.48.592-.014.195.016.48.173.66.157.179.472.007.472.007s.442-.293.832-.023c.271.188.117.948-.002 1.39A4 4 0 0 0 12 8"/></svg>
